X:1
T:Kind im Einschlummern
T:Kinderszenen No 12
T:Robert Schumann
%%score { ( 1 4 5 ) | ( 2 3 ) }
L:1/8
M:2/4
K:G
V:1 treble nm="Piano" snm="Pno."
V:4 treble 
V:5 treble 
V:2 bass 
V:3 bass 
V:1
 z2 Bf/B/ | B<g Bf/B/ | B<g Bf/B/ | B<e Bf/B/ | B<b Bf/B/ | B<g Bf/B/ | B<g Bf/B/ | B<e Bf/B/ || %8
[K:E] [Begb]2 [Adfb]2 | e2 [A,DFB]2 | E2[K:bass] [B,D]2 | [E,^A,]2 D,2 |[K:treble] [egb]2 [Adfb]2 | %13
 e2 [A,DFB]2 | E2[K:bass] [B,D]2 | [E,^A,]2 D,2 || D2 C2 | B,2 C2 |[K:treble] A2 G2 | GF F2 | %20
 B2 A2 | F2 =G2 | B2 A2 | F2 B2 ||[K:G] z2 Bf/B/ | B<g Bf/B/ | B<b cb/c/ | c<a Ba/B/ | c<g Ag/A/ | %29
 A<f [Ae]2- | !fermata![Ae]4- | [Ae]2 z2 |] %32
V:2
 B,C/B,/ B,<F | B,C/B,/ B,<F | B,C/B,/ B,<F | B,C/B,/ B,<F | B,C/B,/ B,<F | B,C/B,/ B,<F | %6
 B,C/B,/ B,<F | B,C/B,/ B,<F ||[K:E] E,,2 E,,2 | E,,2 E,,2 | E,,2 B,,2 | F,,2 z2 | z2 E,,2 | %13
 E,,2 E,,2 | E,,2 B,,2 | F,,2 z2 || B,,,C,,/B,,,/ F,,,/F,,F,,,/ | E,,,F,,,/E,,,/ A,,,/A,,G,,/ | %18
 F,,G,,/F,,/ C,,/C,C,,/ | F,,/F,F,,/ B,,,/B,,B,,/ | B,=C/B,/ B,/[I:staff -1]D[I:staff +1]C/ | %21
 B,A, G,/=CB,/ | B,=C/B,/ B,/[I:staff -1]=D[I:staff +1]C/ | B,A, =G,/B,A,/ ||[K:G] G,C/B,/ B,<F | %25
 G,C/B,/ B,<F | B,C/B,/ C<B | CD/C/ B,<A | B,C/B,/ A,<G | A,B,/A,/- [A,CE]2- | [A,CE]4- | %31
 [A,CE]2 z2 |] %32
V:3
 [E,G,]2 [^D,F,]2 | [E,G,]2 [^D,F,]2 | [E,G,]2 [=D,F,]2 | [C,E,]2 [B,,^D,]2 | [E,G,]2 [^D,F,]2 | %5
 [E,G,]2 [^D,F,]2 | [E,G,]2 [=D,F,]2 | [C,E,]2 [B,,^D,]2 ||[K:E] B,,C,/B,,/ B,,/G,F,/ | %9
 B,,C,/B,,/ B,,/G,F,/ | B,,C,/B,,/ F,,/G,,F,,/ | F,,2 [F,,,F,,]/[G,,,G,,][F,,,F,,]/ | %12
 [E,,,E,,]C,/B,,/ B,,/G,F,/ | B,,C,/B,,/ B,,/G,F,/ | B,,C,/B,,/ F,,/G,,F,,/ | %15
 F,,2 [F,,,F,,]/[G,,,G,,][F,,,F,,]/ || x4 | x4 | x4 | x4 | =C,4 | =D,2 =G,2 | =C,4 | =D,2 ^D,2 || %24
[K:G] E,2 [^D,F,]2 | E,2 [^D,F,]2 | [E,G,]2 A,2 | [D,F,]2 G,2 | [C,E,]2 F,2 | [B,,^D,]2 E,2- | %30
 E,4- | [A,,E,]2 z2 |] %32
V:4
 x4 | x4 | x4 | x4 | x4 | x4 | x4 | x4 ||[K:E] x2 B/gf/ | [GB]2 B,/GF/ | [G,B,]2[K:bass] F,/G,F,/ | %11
 CD/C/ B,2 |[K:treble] B2 B/gf/ | [GB]2 B,/GF/ | [G,B,]2[K:bass] F,/G,F,/ | CD/C/ B,2 || F,4 | E4 | %18
[K:treble] C4 | C2 B2 | E2 E2 | =C=D/C/ B,/ED/ | E2 E2 | =C/=DC/ B,/=GF/ ||[K:G] x4 | x4 | x4 | %27
 x4 | x4 | x4 | x4 | x4 |] %32
V:5
 x4 | x4 | x4 | x4 | x4 | x4 | x4 | x4 ||[K:E] x4 | x4 | x2[K:bass] x2 | x4 |[K:treble] x4 | x4 | %14
 x2[K:bass] x2 | x4 || B,3 A,- | A,G, A,2 |[K:treble] F3 E- | [E^A]2 D2 | x4 | x4 | x4 | x4 || %24
[K:G] x4 | x4 | x4 | x4 | x4 | x4 | x4 | x4 |] %32

